images/logotypes/logo_5.svg

<svg width="215" height="71" viewBox="0 0 215 71" fill="none" xmlns="http://www.w3.org/2000/svg">
<rect x="0.49707" y="0.411865" width="214.489" height="70" rx="35" fill="white"/>
<path d="M83.7314 43.866C83.0516 43.9029 82.3793 43.7096 81.8228 43.3174C81.5904 43.1451 81.4033 42.9187 81.2778 42.6579C81.1523 42.397 81.0923 42.1095 81.1028 41.8203V31.226C81.0973 31.1812 81.102 31.1356 81.1167 31.0928C81.1314 31.0501 81.1556 31.0114 81.1876 30.9794C81.2196 30.9474 81.2584 30.9231 81.3011 30.9085C81.3438 30.8938 81.3894 30.8891 81.4342 30.8946H83.3542C83.5714 30.8946 83.6742 31.0088 83.6742 31.226V40.9974C83.6742 41.4317 83.8685 41.6488 84.2685 41.6488C84.4381 41.6558 84.6077 41.6366 84.7714 41.5917C85 41.5917 85.1257 41.6603 85.1371 41.866L85.3085 43.2946C85.3168 43.3363 85.316 43.3791 85.3062 43.4205C85.2965 43.4618 85.278 43.5006 85.252 43.5341C85.226 43.5677 85.1931 43.5954 85.1556 43.6151C85.118 43.6349 85.0766 43.6464 85.0342 43.6488C84.6137 43.7878 84.1742 43.8611 83.7314 43.866Z" fill="#252525"/>
<path d="M94.5314 42.6431C93.5667 43.4403 92.3542 43.8762 91.1028 43.8762C89.8514 43.8762 88.639 43.4403 87.6742 42.6431C86.8264 41.7871 86.3506 40.6309 86.3506 39.426C86.3506 38.2211 86.8264 37.0648 87.6742 36.2088C88.6409 35.4158 89.8525 34.9824 91.1028 34.9824C92.3531 34.9824 93.5648 35.4158 94.5314 36.2088C95.3598 37.0727 95.8224 38.2233 95.8224 39.4202C95.8224 40.6172 95.3598 41.7678 94.5314 42.6317V42.6431ZM89.48 41.1345C89.9277 41.5401 90.5101 41.7647 91.1142 41.7647C91.7184 41.7647 92.3009 41.5401 92.7485 41.1345C93.1538 40.6687 93.3769 40.072 93.3769 39.4545C93.3769 38.8372 93.1538 38.2405 92.7485 37.7745C92.3009 37.3691 91.7184 37.1444 91.1142 37.1444C90.5101 37.1444 89.9277 37.3691 89.48 37.7745C89.0748 38.2405 88.8516 38.8372 88.8516 39.4545C88.8516 40.072 89.0748 40.6687 89.48 41.1345Z" fill="#252525"/>
<path d="M106.394 35.2716C106.611 35.2716 106.714 35.3858 106.714 35.603V43.7973C106.734 44.3504 106.631 44.9009 106.411 45.4089C106.192 45.917 105.862 46.3698 105.446 46.7344C104.522 47.5224 103.333 47.9308 102.12 47.8773C101.024 47.9158 99.9429 47.6166 99.0228 47.0201C98.6299 46.7622 98.2942 46.4261 98.0368 46.0329C97.7792 45.6397 97.6052 45.1977 97.5257 44.7344C97.5257 44.5058 97.5257 44.403 97.8342 44.403H99.7542C99.8357 44.4057 99.9148 44.4321 99.9817 44.4788C100.049 44.5254 100.101 44.5903 100.131 44.6658C100.256 45.0129 100.504 45.302 100.829 45.4773C101.224 45.6813 101.664 45.7834 102.109 45.7744C102.377 45.7892 102.645 45.7502 102.899 45.6599C103.152 45.5697 103.384 45.4298 103.583 45.2487C103.764 45.0592 103.905 44.8349 103.998 44.5894C104.09 44.3439 104.132 44.0822 104.12 43.8201V43.1001C103.433 43.6057 102.596 43.8672 101.743 43.843C101.146 43.8647 100.551 43.7656 99.9928 43.5516C99.435 43.3374 98.9264 43.0129 98.4971 42.5973C97.6732 41.7449 97.2126 40.6057 97.2126 39.4201C97.2126 38.2346 97.6732 37.0954 98.4971 36.243C98.9284 35.8311 99.4378 35.5097 99.9952 35.2977C100.553 35.0857 101.147 34.9874 101.743 35.0087C102.621 34.9855 103.48 35.2639 104.177 35.7973V35.6144C104.172 35.5706 104.176 35.5262 104.19 35.4844C104.205 35.4426 104.228 35.4045 104.258 35.3727C104.289 35.3409 104.326 35.3165 104.368 35.3009C104.409 35.2854 104.453 35.2793 104.497 35.283L106.394 35.2716ZM101.96 41.8087C102.254 41.8178 102.547 41.7622 102.818 41.6456C103.088 41.5292 103.33 41.3546 103.526 41.1344C103.906 40.6438 104.112 40.0407 104.112 39.4201C104.112 38.7996 103.906 38.1966 103.526 37.7058C103.331 37.4887 103.09 37.3167 102.822 37.2022C102.553 37.0877 102.263 37.0334 101.971 37.043C101.674 37.0336 101.377 37.089 101.103 37.2055C100.829 37.322 100.583 37.4966 100.383 37.7173C99.9619 38.1866 99.7405 38.8016 99.7657 39.4316C99.7451 40.0553 99.9616 40.6638 100.371 41.1344C100.572 41.3545 100.818 41.5288 101.092 41.6452C101.366 41.7615 101.662 41.8173 101.96 41.8087Z" fill="#252525"/>
<path d="M116.577 42.643C115.61 43.436 114.399 43.8694 113.149 43.8694C111.898 43.8694 110.687 43.436 109.72 42.643C108.891 41.7771 108.428 40.6247 108.428 39.4258C108.428 38.2271 108.891 37.0745 109.72 36.2087C110.688 35.4177 111.899 34.9856 113.149 34.9856C114.398 34.9856 115.61 35.4177 116.577 36.2087C117.406 37.0726 117.868 38.2232 117.868 39.4201C117.868 40.617 117.406 41.7677 116.577 42.6315V42.643ZM111.514 41.1344C111.733 41.3429 111.992 41.5057 112.274 41.6136C112.557 41.7215 112.858 41.7723 113.16 41.763C113.46 41.7707 113.759 41.7193 114.04 41.6114C114.32 41.5035 114.577 41.3415 114.794 41.1344C115.193 40.6654 115.412 40.0699 115.412 39.4544C115.412 38.8389 115.193 38.2434 114.794 37.7744C114.577 37.5674 114.32 37.4053 114.04 37.2975C113.759 37.1896 113.46 37.1381 113.16 37.1458C112.858 37.1366 112.557 37.1873 112.274 37.2952C111.992 37.4031 111.733 37.5661 111.514 37.7744C111.116 38.2434 110.897 38.8389 110.897 39.4544C110.897 40.0699 111.116 40.6654 111.514 41.1344Z" fill="#252525"/>
<path d="M121.994 33.3288C121.692 33.5933 121.304 33.739 120.903 33.739C120.501 33.739 120.114 33.5933 119.811 33.3288C119.674 33.1996 119.565 33.0437 119.491 32.8708C119.416 32.6979 119.378 32.5115 119.378 32.3231C119.378 32.1348 119.416 31.9485 119.491 31.7755C119.565 31.6026 119.674 31.4467 119.811 31.3174C120.117 31.0596 120.503 30.9182 120.903 30.9182C121.302 30.9182 121.689 31.0596 121.994 31.3174C122.131 31.4467 122.24 31.6026 122.315 31.7755C122.39 31.9485 122.428 32.1348 122.428 32.3231C122.428 32.5115 122.39 32.6979 122.315 32.8708C122.24 33.0437 122.131 33.1996 121.994 33.3288ZM122.234 43.866C121.555 43.8994 120.884 43.7064 120.326 43.3174C120.097 43.1426 119.913 42.9154 119.79 42.6549C119.666 42.3944 119.607 42.1083 119.617 41.8203V35.6031C119.612 35.5583 119.616 35.5127 119.631 35.47C119.646 35.4272 119.67 35.3885 119.702 35.3565C119.734 35.3245 119.773 35.3003 119.815 35.2856C119.858 35.2709 119.904 35.2662 119.949 35.2717H121.869C122.086 35.2717 122.189 35.386 122.189 35.6031V40.9974C122.189 41.4317 122.383 41.6488 122.771 41.6488C122.945 41.6551 123.118 41.6358 123.286 41.5917C123.514 41.5917 123.64 41.6603 123.651 41.866L123.823 43.2946C123.831 43.3363 123.83 43.3791 123.821 43.4205C123.811 43.4618 123.792 43.5006 123.766 43.5341C123.74 43.5677 123.707 43.5954 123.67 43.6151C123.632 43.6349 123.591 43.6464 123.549 43.6488C123.124 43.7886 122.681 43.8619 122.234 43.866Z" fill="#252525"/>
<path d="M130.886 34.9973C131.485 34.9736 132.084 35.0706 132.645 35.2826C133.207 35.4947 133.72 35.8174 134.154 36.2315C134.962 37.099 135.412 38.2403 135.412 39.4258C135.412 40.6113 134.962 41.7528 134.154 42.6201C133.722 43.0381 133.209 43.3639 132.648 43.5779C132.086 43.7921 131.486 43.8901 130.886 43.8658C130.03 43.8849 129.191 43.6241 128.497 43.123V47.2487C128.497 47.4658 128.383 47.5687 128.166 47.5687H126.246C126.202 47.5769 126.157 47.5743 126.114 47.5611C126.072 47.5479 126.033 47.5246 126.001 47.493C125.97 47.4615 125.946 47.4229 125.933 47.3802C125.92 47.3377 125.917 47.2926 125.926 47.2487V37.8773C125.939 37.7856 125.931 37.6921 125.902 37.6041C125.873 37.5162 125.823 37.4362 125.758 37.3707C125.692 37.3053 125.612 37.256 125.524 37.2269C125.437 37.1977 125.343 37.1896 125.251 37.203H124.874C124.623 37.203 124.497 37.1115 124.497 36.9287V35.5801C124.491 35.4967 124.514 35.4137 124.562 35.3451C124.61 35.2765 124.68 35.2263 124.76 35.203C125.155 35.0593 125.574 34.9896 125.994 34.9973C126.414 34.9601 126.835 35.0491 127.203 35.2527C127.572 35.4563 127.871 35.7654 128.063 36.1401C128.431 35.7678 128.871 35.4744 129.356 35.2778C129.842 35.0814 130.362 34.9858 130.886 34.9973ZM129.103 41.1344C129.307 41.3474 129.551 41.5169 129.822 41.6327C130.093 41.7485 130.385 41.8081 130.68 41.8081C130.975 41.8081 131.266 41.7485 131.537 41.6327C131.808 41.5169 132.053 41.3474 132.257 41.1344C132.686 40.6557 132.912 40.0283 132.886 39.3858C132.916 38.7429 132.689 38.1141 132.257 37.6373C132.053 37.4243 131.808 37.2549 131.537 37.1391C131.266 37.0232 130.975 36.9635 130.68 36.9635C130.385 36.9635 130.093 37.0232 129.822 37.1391C129.551 37.2549 129.307 37.4243 129.103 37.6373C128.687 38.1225 128.471 38.7473 128.497 39.3858C128.474 40.0239 128.69 40.6475 129.103 41.1344Z" fill="#252525"/>
<path d="M140.806 43.866C139.78 43.9082 138.762 43.6628 137.868 43.1574C137.51 42.9414 137.204 42.6474 136.975 42.2972C136.745 41.947 136.598 41.5497 136.543 41.1346C136.543 40.906 136.623 40.7917 136.874 40.7917H138.554C138.634 40.7949 138.712 40.8199 138.778 40.8644C138.845 40.9087 138.898 40.9706 138.931 41.0431C139.171 41.6603 139.8 41.9689 140.806 41.9689C141.156 41.985 141.506 41.9142 141.823 41.7631C141.932 41.7138 142.026 41.6356 142.094 41.537C142.163 41.4383 142.203 41.3229 142.211 41.2031C142.211 40.906 142.028 40.7003 141.663 40.5631C141.229 40.4188 140.781 40.3229 140.326 40.2774C139.787 40.2164 139.252 40.121 138.726 39.9917C138.213 39.8758 137.748 39.6091 137.388 39.226C137.177 38.9657 137.021 38.6645 136.931 38.3414C136.841 38.0183 136.818 37.6801 136.864 37.3478C136.91 37.0155 137.024 36.6962 137.199 36.4099C137.374 36.1235 137.605 35.8762 137.88 35.6831C138.704 35.1585 139.67 34.9028 140.646 34.9517C141.59 34.9198 142.524 35.1534 143.343 35.626C143.673 35.8129 143.956 36.0708 144.174 36.3812C144.391 36.6916 144.537 37.0466 144.6 37.4203C144.6 37.6489 144.497 37.7631 144.291 37.7631H142.6C142.529 37.7674 142.458 37.75 142.397 37.7133C142.336 37.6766 142.287 37.6222 142.257 37.5574C142.144 37.2868 141.931 37.0699 141.663 36.9517C141.36 36.7933 141.022 36.7146 140.68 36.7231C140.345 36.705 140.011 36.7718 139.708 36.9174C139.602 36.9586 139.51 37.0306 139.445 37.1243C139.38 37.218 139.344 37.3291 139.343 37.4431C139.35 37.5995 139.407 37.7493 139.506 37.8707C139.605 37.9921 139.74 38.0785 139.891 38.1174C140.33 38.2829 140.786 38.3979 141.251 38.4603C141.786 38.5307 142.316 38.6299 142.84 38.7574C143.352 38.8734 143.818 39.1401 144.177 39.5231C144.369 39.7342 144.518 39.9812 144.614 40.25C144.71 40.5187 144.752 40.8038 144.737 41.0889C144.747 41.4839 144.654 41.8748 144.468 42.2234C144.282 42.5718 144.008 42.8661 143.674 43.0774C142.82 43.6257 141.82 43.9006 140.806 43.866Z" fill="#252525"/>
<path d="M156.817 43.2946C156.824 43.3352 156.822 43.3766 156.813 43.4165C156.802 43.4565 156.785 43.494 156.76 43.527C156.736 43.5601 156.705 43.5878 156.67 43.6088C156.634 43.6297 156.595 43.6433 156.554 43.6489C156.137 43.7851 155.702 43.8584 155.263 43.866C154.828 43.911 154.39 43.8432 153.99 43.669C153.589 43.4948 153.24 43.2202 152.977 42.8717C152.17 43.5658 151.126 43.9219 150.063 43.866C149.569 43.8888 149.076 43.808 148.616 43.6289C148.155 43.4498 147.737 43.1763 147.388 42.826C147.042 42.459 146.774 42.0259 146.599 41.5526C146.424 41.0794 146.347 40.5757 146.371 40.0717V35.6032C146.371 35.386 146.474 35.2717 146.691 35.2717H148.611C148.828 35.2717 148.931 35.386 148.931 35.6032V39.7289C148.911 40.2429 149.086 40.7456 149.423 41.1346C149.591 41.3129 149.795 41.453 150.022 41.5457C150.248 41.6384 150.492 41.6813 150.737 41.6717C150.987 41.6827 151.238 41.644 151.473 41.5576C151.708 41.4713 151.925 41.3392 152.109 41.1689C152.282 40.9894 152.418 40.7762 152.506 40.5422C152.595 40.3083 152.634 40.0587 152.623 39.8089V35.6032C152.623 35.386 152.726 35.2717 152.943 35.2717H154.886C155.103 35.2717 155.206 35.386 155.206 35.6032V40.986C155.206 41.4317 155.4 41.6489 155.777 41.6489C155.954 41.6557 156.131 41.6365 156.303 41.5917C156.346 41.5796 156.392 41.5774 156.435 41.5854C156.48 41.5933 156.521 41.6112 156.558 41.6376C156.594 41.664 156.624 41.6982 156.646 41.7378C156.666 41.7773 156.678 41.8212 156.68 41.866L156.817 43.2946Z" fill="#252525"/>
<path d="M174.977 43.2944C174.987 43.3354 174.988 43.3781 174.98 43.4195C174.971 43.4607 174.954 43.4998 174.929 43.5336C174.904 43.5675 174.872 43.5954 174.834 43.6152C174.798 43.6352 174.756 43.6467 174.714 43.6487C174.289 43.7869 173.847 43.8602 173.4 43.8659C172.72 43.901 172.049 43.7079 171.491 43.3173C171.25 43.15 171.055 42.9259 170.921 42.6647C170.787 42.4036 170.72 42.1134 170.726 41.8202V39.1344C170.75 38.622 170.578 38.1195 170.246 37.7287C170.086 37.5501 169.887 37.4093 169.666 37.3164C169.444 37.2236 169.206 37.181 168.966 37.1916C168.75 37.1835 168.535 37.2245 168.336 37.3116C168.138 37.3987 167.963 37.5296 167.823 37.6944C167.521 38.0774 167.367 38.556 167.388 39.043V43.2602C167.388 43.4773 167.286 43.5916 167.068 43.5916H165.137C165.092 43.5972 165.047 43.5924 165.004 43.5778C164.961 43.563 164.922 43.5388 164.89 43.5068C164.858 43.4749 164.834 43.436 164.819 43.3933C164.804 43.3506 164.8 43.3051 164.806 43.2602V39.1344C164.831 38.6276 164.672 38.1286 164.36 37.7287C164.22 37.5607 164.046 37.4255 163.848 37.3327C163.651 37.2399 163.435 37.1917 163.217 37.1916C162.984 37.1822 162.752 37.2221 162.535 37.3088C162.318 37.3955 162.122 37.5269 161.96 37.6944C161.633 38.0652 161.465 38.5495 161.491 39.043V43.2602C161.497 43.3051 161.492 43.3506 161.478 43.3933C161.463 43.436 161.439 43.4749 161.407 43.5068C161.375 43.5388 161.336 43.563 161.294 43.5778C161.25 43.5924 161.204 43.5972 161.16 43.5916H159.297C159.08 43.5916 158.977 43.4773 158.977 43.2602V37.8773C158.991 37.7856 158.983 37.6922 158.953 37.6042C158.924 37.5163 158.875 37.4363 158.809 37.3708C158.744 37.3053 158.664 37.256 158.576 37.2269C158.488 37.1978 158.394 37.1896 158.303 37.203H157.926C157.674 37.203 157.548 37.1116 157.548 36.9287V35.5802C157.543 35.4967 157.566 35.4138 157.614 35.3452C157.662 35.2765 157.731 35.2263 157.811 35.203C158.207 35.0594 158.625 34.9896 159.046 34.9973C159.449 34.9629 159.855 35.0434 160.215 35.2294C160.575 35.4155 160.874 35.6995 161.08 36.0487C161.465 35.6834 161.922 35.4013 162.422 35.2204C162.921 35.0395 163.452 34.9636 163.983 34.9973C164.498 34.9722 165.011 35.0687 165.482 35.2792C165.953 35.4898 166.367 35.8082 166.691 36.2087C167.07 35.7976 167.535 35.4758 168.052 35.2662C168.57 35.0567 169.128 34.965 169.686 34.9973C170.184 34.974 170.682 35.0543 171.148 35.2334C171.615 35.4124 172.039 35.6861 172.394 36.0373C172.742 36.4036 173.01 36.8366 173.185 37.3101C173.36 37.7835 173.438 38.2876 173.411 38.7916V40.9973C173.411 41.4316 173.606 41.6487 173.971 41.6487C174.148 41.657 174.326 41.6378 174.497 41.5916C174.734 41.5916 174.859 41.683 174.874 41.8659L174.977 43.2944Z" fill="#252525"/>
<path d="M40.9656 33.786C41.8088 30.397 43.7616 27.3876 46.513 25.2369C49.2644 23.0861 52.6563 21.9177 56.1485 21.9177C59.6407 21.9177 63.0326 23.0861 65.784 25.2369C68.5355 27.3876 70.4882 30.397 71.3314 33.786H69.9599C67.6464 33.7519 65.3804 34.4433 63.4799 35.7631C63.3702 35.8425 63.2557 35.9151 63.1371 35.9802H62.9771C62.8584 35.9151 62.7439 35.8425 62.6342 35.7631C60.717 34.4738 58.4589 33.7853 56.1485 33.7853C53.8381 33.7853 51.58 34.4738 49.6628 35.7631C49.5531 35.8425 49.4386 35.9151 49.3199 35.9802H49.1599C49.0413 35.9151 48.9268 35.8425 48.8171 35.7631C46.9166 34.4433 44.6506 33.7519 42.3371 33.786H40.9656ZM67.4914 40.9517C68.1954 40.4034 69.0679 40.1166 69.9599 40.1402H71.7999V36.4717H69.9599C68.3887 36.4527 66.8535 36.9417 65.5828 37.866C64.8677 38.3932 64.0027 38.6776 63.1142 38.6776C62.2258 38.6776 61.3607 38.3932 60.6456 37.866C59.3427 36.959 57.7932 36.4727 56.2056 36.4727C54.6181 36.4727 53.0686 36.959 51.7656 37.866C51.0506 38.3932 50.1855 38.6776 49.2971 38.6776C48.4086 38.6776 47.5436 38.3932 46.8285 37.866C45.5421 36.9298 43.9848 36.4402 42.3942 36.4717H40.4971V40.1402H42.3371C43.2291 40.1166 44.1016 40.4034 44.8056 40.9517C46.1062 41.8593 47.654 42.346 49.2399 42.346C50.8259 42.346 52.3736 41.8593 53.6742 40.9517C54.3791 40.4052 55.251 40.1185 56.1428 40.1402C57.0351 40.1146 57.9083 40.4017 58.6114 40.9517C59.9143 41.8588 61.4638 42.3449 63.0514 42.3449C64.6389 42.3449 66.1884 41.8588 67.4914 40.9517ZM67.4914 47.5117C68.1954 46.9634 69.0679 46.6766 69.9599 46.7002H71.7999V43.0317H69.9599C68.3887 43.0127 66.8535 43.5017 65.5828 44.426C64.8677 44.9532 64.0027 45.2376 63.1142 45.2376C62.2258 45.2376 61.3607 44.9532 60.6456 44.426C59.3427 43.519 57.7932 43.0328 56.2056 43.0328C54.6181 43.0328 53.0686 43.519 51.7656 44.426C51.0506 44.9532 50.1855 45.2376 49.2971 45.2376C48.4086 45.2376 47.5436 44.9532 46.8285 44.426C45.5421 43.49 43.9848 43.0002 42.3942 43.0317H40.4971V46.7002H42.3371C43.2291 46.6766 44.1016 46.9634 44.8056 47.5117C46.1062 48.4193 47.654 48.906 49.2399 48.906C50.8259 48.906 52.3736 48.4193 53.6742 47.5117C54.3791 46.9652 55.251 46.6785 56.1428 46.7002C57.0351 46.6746 57.9083 46.9617 58.6114 47.5117C59.9143 48.4188 61.4638 48.9049 63.0514 48.9049C64.6389 48.9049 66.1884 48.4188 67.4914 47.5117Z" fill="#252525"/>
</svg>

<svg width="215" height="71" fill="none" xmlns="http://www.w3.org/2000/svg"><rect x=".497" y=".412" width="214.489" height="70" rx="35" fill="#fff"/><path d="M83.731 43.866a3.028 3.028 0 0 1-1.908-.549 1.784 1.784 0 0 1-.72-1.497V31.226a.298.298 0 0 1 .331-.331h1.92c.217 0 .32.114.32.331v9.771c0 .435.194.652.594.652.17.007.34-.012.503-.057.229 0 .355.068.366.274l.171 1.429a.295.295 0 0 1-.152.32.297.297 0 0 1-.122.034c-.42.139-.86.212-1.303.217Zm10.8-1.223a5.382 5.382 0 0 1-6.857 0 4.572 4.572 0 0 1 0-6.434 5.406 5.406 0 0 1 6.857 0 4.64 4.64 0 0 1 0 6.423v.011Zm-5.051-1.508a2.434 2.434 0 0 0 3.269 0 2.56 2.56 0 0 0 0-3.36 2.435 2.435 0 0 0-3.269 0 2.56 2.56 0 0 0 0 3.36Zm16.914-5.863c.217 0 .32.114.32.331v8.194a3.716 3.716 0 0 1-1.268 2.937 4.8 4.8 0 0 1-3.326 1.143 5.348 5.348 0 0 1-3.097-.857 3.425 3.425 0 0 1-1.497-2.286c0-.228 0-.331.308-.331h1.92a.422.422 0 0 1 .377.263c.125.347.373.636.698.811.395.204.835.306 1.28.297a2.023 2.023 0 0 0 1.474-.525 1.94 1.94 0 0 0 .537-1.429v-.72a3.828 3.828 0 0 1-2.377.743 4.438 4.438 0 0 1-3.246-1.246 4.572 4.572 0 0 1 0-6.354 4.47 4.47 0 0 1 3.246-1.234 3.838 3.838 0 0 1 2.434.788v-.183a.301.301 0 0 1 .081-.241.297.297 0 0 1 .239-.09l1.897-.011Zm-4.434 6.537a2.014 2.014 0 0 0 1.566-.675 2.8 2.8 0 0 0 0-3.428 2.007 2.007 0 0 0-1.555-.663 2.055 2.055 0 0 0-1.588.674 2.422 2.422 0 0 0-.617 1.715 2.47 2.47 0 0 0 .605 1.702 2.076 2.076 0 0 0 1.589.675Zm14.617.834a5.405 5.405 0 0 1-6.857 0 4.652 4.652 0 0 1 0-6.434 5.418 5.418 0 0 1 6.857 0 4.637 4.637 0 0 1 0 6.422v.012Zm-5.063-1.509a2.29 2.29 0 0 0 1.646.629 2.29 2.29 0 0 0 1.634-.629 2.593 2.593 0 0 0 0-3.36 2.28 2.28 0 0 0-1.634-.628 2.29 2.29 0 0 0-1.646.628 2.597 2.597 0 0 0 0 3.36Zm10.48-7.805a1.656 1.656 0 0 1-2.183 0 1.372 1.372 0 0 1-.433-1.006 1.376 1.376 0 0 1 .433-1.006 1.694 1.694 0 0 1 2.183 0 1.39 1.39 0 0 1 .434 1.006 1.376 1.376 0 0 1-.434 1.006Zm.24 10.537a3.072 3.072 0 0 1-1.908-.549 1.801 1.801 0 0 1-.709-1.497v-6.217a.3.3 0 0 1 .085-.247.3.3 0 0 1 .247-.084h1.92c.217 0 .32.114.32.331v5.394c0 .435.194.652.582.652.174.006.347-.013.515-.057.228 0 .354.068.365.274l.172 1.429a.314.314 0 0 1-.002.125.302.302 0 0 1-.272.229c-.425.14-.868.213-1.315.217Zm8.652-8.869a4.478 4.478 0 0 1 3.268 1.234 4.687 4.687 0 0 1 0 6.39 4.444 4.444 0 0 1-3.268 1.245 3.931 3.931 0 0 1-2.389-.743v4.126c0 .217-.114.32-.331.32h-1.92a.276.276 0 0 1-.313-.189.266.266 0 0 1-.007-.131v-9.372a.603.603 0 0 0-.168-.506.6.6 0 0 0-.507-.168h-.377c-.251 0-.377-.092-.377-.274V35.58a.364.364 0 0 1 .263-.377 3.429 3.429 0 0 1 1.234-.206 2.112 2.112 0 0 1 2.069 1.143 3.854 3.854 0 0 1 2.823-1.143Zm-1.783 6.137a2.183 2.183 0 0 0 3.154 0 2.471 2.471 0 0 0 .629-1.748 2.436 2.436 0 0 0-.629-1.749 2.187 2.187 0 0 0-2.435-.498 2.183 2.183 0 0 0-.719.498 2.528 2.528 0 0 0-.606 1.749 2.56 2.56 0 0 0 .606 1.748Zm11.703 2.732a5.51 5.51 0 0 1-2.938-.709 2.788 2.788 0 0 1-1.325-2.022c0-.229.08-.343.331-.343h1.68a.432.432 0 0 1 .377.251c.24.617.869.926 1.875.926.35.016.7-.055 1.017-.206a.66.66 0 0 0 .388-.56c0-.297-.183-.503-.548-.64a6.187 6.187 0 0 0-1.337-.286 12.679 12.679 0 0 1-1.6-.285 2.63 2.63 0 0 1-1.338-.766 2.45 2.45 0 0 1 .492-3.543 4.71 4.71 0 0 1 2.766-.731 5.054 5.054 0 0 1 2.697.674 2.552 2.552 0 0 1 1.257 1.794c0 .229-.103.343-.309.343H142.6a.353.353 0 0 1-.343-.206 1.144 1.144 0 0 0-.594-.605 2.013 2.013 0 0 0-.983-.229 1.995 1.995 0 0 0-.972.194.573.573 0 0 0-.365.526.728.728 0 0 0 .548.674c.439.166.895.28 1.36.343.535.07 1.065.17 1.589.297a2.63 2.63 0 0 1 1.337.766 2.162 2.162 0 0 1 .56 1.566 2.288 2.288 0 0 1-1.063 1.988 4.992 4.992 0 0 1-2.868.789Zm16.011-.571a.313.313 0 0 1-.004.121.323.323 0 0 1-.143.193.315.315 0 0 1-.116.04 4.39 4.39 0 0 1-1.291.217 2.533 2.533 0 0 1-2.286-.994 4.136 4.136 0 0 1-2.914.994 3.539 3.539 0 0 1-2.675-1.04 3.753 3.753 0 0 1-1.017-2.754v-4.469c0-.217.103-.331.32-.331h1.92c.217 0 .32.114.32.331v4.126c-.02.514.155 1.017.492 1.406a1.712 1.712 0 0 0 1.314.537 1.895 1.895 0 0 0 1.372-.503 1.836 1.836 0 0 0 .514-1.36v-4.206c0-.217.103-.331.32-.331h1.943c.217 0 .32.114.32.331v5.383c0 .446.194.663.571.663a1.81 1.81 0 0 0 .526-.057.294.294 0 0 1 .255.046c.036.026.066.06.088.1.02.04.032.083.034.128l.137 1.429Zm18.16-.001c.01.041.011.084.003.126a.299.299 0 0 1-.051.114.276.276 0 0 1-.095.081.277.277 0 0 1-.12.034 4.427 4.427 0 0 1-1.314.217 3.053 3.053 0 0 1-1.909-.549 1.785 1.785 0 0 1-.765-1.497v-2.686a2.026 2.026 0 0 0-.48-1.405 1.624 1.624 0 0 0-1.28-.537 1.436 1.436 0 0 0-1.143.502 2.036 2.036 0 0 0-.435 1.349v4.217c0 .217-.102.332-.32.332h-1.931a.297.297 0 0 1-.331-.332v-4.126a2.117 2.117 0 0 0-.446-1.405 1.488 1.488 0 0 0-1.143-.537 1.657 1.657 0 0 0-1.257.502 1.889 1.889 0 0 0-.469 1.349v4.217a.3.3 0 0 1-.013.133.3.3 0 0 1-.184.185.305.305 0 0 1-.134.014h-1.863c-.217 0-.32-.115-.32-.332v-5.383a.588.588 0 0 0-.401-.65.596.596 0 0 0-.273-.024h-.377c-.252 0-.378-.091-.378-.274V35.58a.371.371 0 0 1 .263-.377 3.436 3.436 0 0 1 1.235-.206 2.15 2.15 0 0 1 2.034 1.052 3.855 3.855 0 0 1 2.903-1.052 3.28 3.28 0 0 1 2.708 1.212 3.776 3.776 0 0 1 2.995-1.211 3.606 3.606 0 0 1 2.708 1.04 3.716 3.716 0 0 1 1.017 2.754v2.205c0 .435.195.652.56.652.177.008.355-.011.526-.057.237 0 .362.091.377.274l.103 1.428ZM40.966 33.786a15.646 15.646 0 0 1 30.365 0H69.96a11.074 11.074 0 0 0-6.48 1.977c-.11.08-.224.152-.343.217h-.16a3.253 3.253 0 0 1-.343-.217 11.622 11.622 0 0 0-12.971 0c-.11.08-.224.152-.343.217h-.16a3.262 3.262 0 0 1-.343-.217 11.074 11.074 0 0 0-6.48-1.977h-1.371Zm26.525 7.166a3.851 3.851 0 0 1 2.469-.812h1.84v-3.668h-1.84a7.291 7.291 0 0 0-4.377 1.394 4.16 4.16 0 0 1-4.937 0 7.771 7.771 0 0 0-8.88 0 4.16 4.16 0 0 1-4.938 0 7.29 7.29 0 0 0-4.434-1.394h-1.897v3.668h1.84a3.851 3.851 0 0 1 2.469.812 7.749 7.749 0 0 0 8.868 0 3.875 3.875 0 0 1 2.469-.812 3.828 3.828 0 0 1 2.468.812 7.77 7.77 0 0 0 8.88 0Zm0 6.56a3.851 3.851 0 0 1 2.469-.812h1.84v-3.668h-1.84a7.291 7.291 0 0 0-4.377 1.394 4.16 4.16 0 0 1-4.937 0 7.771 7.771 0 0 0-8.88 0 4.16 4.16 0 0 1-4.938 0 7.292 7.292 0 0 0-4.434-1.394h-1.897V46.7h1.84a3.851 3.851 0 0 1 2.469.812 7.749 7.749 0 0 0 8.868 0 3.875 3.875 0 0 1 2.469-.812 3.828 3.828 0 0 1 2.468.812 7.77 7.77 0 0 0 8.88 0Z" fill="#252525"/></svg>
